!!!OTL: Pfingstlied. / (12. Jahrh.) / B. Andere Lesart.
!!!ARE: Europa, Mitteleuropa, Deutschland
!!!SCT: A0567B
!!!TXL: @@GMH, (@@LAT)
!!!YEM: Copyright 1995, estate of Helmut Schaffrath.
**kern	**text
*M4/1yy	*
*clefC4	*
*k[b-]	*
*F:	*
{0F	Nu
=1	=1
1G	bit-
1G	-ten
1F	wir
1F	den
=2	=2
*lig	*
1D	hei-
1C	.
*Xlig	*
1D	-li-
1F	-gen
=3	=3
1F	Geiſt,
1r}	.
{1A	umb
1c	den
=4	=4
1d	rech-
1c	-ten
1A	glau-
1F	-ben
=5	=5
1D	al-
1F	-lermeiſt,
1F	.
1r}	.
=6||	=6||
{1.A	das
2A	er
1A	vns
1G	be-
=7	=7
0A	-hü-
1F	-te
1F	an
=8	=8
1G	vn-
1G	-ſerm
0A	en-
=9	=9
0F}	-de,
{1G	wenn
1G	wir
=10	=10
0A	heim-
0F	-farn
=11	=11
0D	aus
1F	die-
1F	-ſem
=12	=12
1G	e-
1F	-len-
*lig	*
1E	-de.
1D}	.
*Xlig	*
=13||	=13||
{1.D	Ky-
2E	-ri-
0F	-o-
=14	=14
0F/ll}	-leis.
==	==
!!!GTL: Geistliche Volkslieder
!!!AGN: Romanze, Ballade, Lied, religioeses Lied
!! Leisentrit 1567 I. fol. 183
!!!ONB: ESAC (Essen Associative Code) Database: ALTDEU
!!!AMT: simple quadruple
!!!AIN: vox
!!!EED: Helmut Schaffrath
!!!EEV: 1.0
!!!RDF**kern: l = terminal long
!!!URL-scan: https://rosdok.uni-rostock.de/mcrviewer/recordIdentifier/rosdok_ppn738218359/iview2/phys_0747.iview2?x=-1583.232250273661&y=414.12359507987276&scale=0.2846028696088022&rotation=0&layout=singlePageLayout&logicalDiv=log_0021
!!!ENC: Anna Maria Matuszewska
!!!EEV: 2024/21/03
*-	*-
